src/images/icon/icon_btn_elected_refresh.svg

<svg height="20" viewBox="0 0 20 20" width="20" xmlns="http://www.w3.org/2000/svg"><g fill="none" fill-rule="evenodd"><path d="m3.81659259 14.8482452c1.43844899 1.832025 3.67349153 3.0088977 6.18340741 3.0088977 4.3393802 0 7.8571429-3.5177627 7.8571429-7.8571429m-1.6783431-4.85410781c-1.4386117-1.82867276-3.6715623-3.00303505-6.1787998-3.00303505-4.33938018 0-7.85714286 3.51776268-7.85714286 7.85714286" stroke="#1ee7e7" stroke-width="1.5"/><path d="m1.85714286 8.50793651c.21039419-.15779564.50887102-.1151561.66666666.09523809l1.90476191 2.5396825c.06182006.0824268.09523809.1826809.09523809.2857143 0 .2629928-.21319773.4761905-.47619047.4761905h-3.80952381c-.10303344 0-.20328754-.033418-.28571429-.0952381-.21039419-.1577956-.25303374-.4562725-.09523809-.6666667l1.9047619-2.5396825c.02707345-.03609793.05914016-.06816464.0952381-.09523809zm17.90476194-.41269841c.2629927 0 .4761904.21319773.4761904.47619047 0 .10303344-.033418.20328754-.0952381.28571429l-1.9047619 2.53968254c-.1577956.2103942-.4562724.2530337-.6666666.0952381-.036098-.0270735-.0681647-.0591402-.0952381-.0952381l-1.9047619-2.53968254c-.1577957-.21039419-.1151561-.50887103.0952381-.66666667.0824267-.06182006.1826808-.09523809.2857143-.09523809z" fill="#0080ff" transform="matrix(.80901699 -.58778525 .58778525 .80901699 -3.968025 7.787674)"/></g></svg>

<?xml version="1.0" encoding="UTF-8"?>
<svg width="20px" height="20px" viewBox="0 0 20 20" version="1.1" xmlns="http://www.w3.org/2000/svg" xmlns:xlink="http://www.w3.org/1999/xlink">
    
    <g id="Dashboard" stroke="none" stroke-width="1" fill="none" fill-rule="evenodd">
        <g id="00-Menu-交互备份" transform="translate(-259.000000, -425.000000)">
            <g id="编组-19" transform="translate(257.000000, 423.000000)">
                <g id="编组-8" transform="translate(2.000000, 2.000000)">
                    <path d="M3.81659259,14.8482452 C5.25504158,16.6802702 7.49008412,17.8571429 10,17.8571429 C14.3393802,17.8571429 17.8571429,14.3393802 17.8571429,10 M16.1787998,5.14589219 C14.7401881,3.31721943 12.5072375,2.14285714 10,2.14285714 C5.66061982,2.14285714 2.14285714,5.66061982 2.14285714,10" id="形状" stroke="#1EE7E7" stroke-width="1.5"></path>
                    <path d="M1.85714286,8.50793651 C2.06753705,8.35014087 2.36601388,8.39278041 2.52380952,8.6031746 L2.52380952,8.6031746 L4.42857143,11.1428571 C4.49039149,11.2252839 4.52380952,11.325538 4.52380952,11.4285714 C4.52380952,11.6915642 4.31061179,11.9047619 4.04761905,11.9047619 L4.04761905,11.9047619 L0.238095238,11.9047619 C0.135061803,11.9047619 0.0348077004,11.8713439 -0.0476190476,11.8095238 C-0.258013238,11.6517282 -0.300652786,11.3532513 -0.142857143,11.1428571 L-0.142857143,11.1428571 L1.76190476,8.6031746 C1.78897821,8.56707667 1.82104492,8.53500996 1.85714286,8.50793651 Z M19.7619048,8.0952381 C20.0248975,8.0952381 20.2380952,8.30843583 20.2380952,8.57142857 C20.2380952,8.67446201 20.2046772,8.77471611 20.1428571,8.85714286 L18.2380952,11.3968254 C18.0802996,11.6072196 17.7818228,11.6498591 17.5714286,11.4920635 C17.5353306,11.46499 17.5032639,11.4329233 17.4761905,11.3968254 L15.5714286,8.85714286 C15.4136329,8.64674867 15.4562725,8.34827183 15.6666667,8.19047619 C15.7490934,8.12865613 15.8493475,8.0952381 15.952381,8.0952381 L19.7619048,8.0952381 Z" id="形状结合" fill="#0080FF" transform="translate(9.999986, 10.000000) rotate(-36.000000) translate(-9.999986, -10.000000) "></path>
                </g>
            </g>
        </g>
    </g>
</svg>
